src/mixer-horizontal.svg

<svg viewBox="0 0 16 16" fill="none" xmlns="http://www.w3.org/2000/svg"><path d="M10.5 9.0025C9.92367 9.00239 9.36501 9.2014 8.91855 9.56585C8.47209 9.93031 8.16527 10.4378 8.05 11.0025H1V12.0025H8.05C8.13491 12.5984 8.43199 13.1437 8.88666 13.5382C9.34133 13.9327 9.92306 14.1498 10.525 14.1498C11.1269 14.1498 11.7087 13.9327 12.1633 13.5382C12.618 13.1437 12.9151 12.5984 13 12.0025H15V11.0025H13C12.8831 10.4293 12.5689 9.91526 12.1121 9.54982C11.6553 9.18439 11.0849 8.99071 10.5 9.0025ZM10.54 13.38C10.186 13.38 9.83989 13.275 9.54553 13.0783C9.25117 12.8816 9.02174 12.6021 8.88626 12.275C8.75077 11.9479 8.71533 11.588 8.78439 11.2408C8.85346 10.8936 9.02394 10.5746 9.27428 10.3243C9.52461 10.0739 9.84356 9.90347 10.1908 9.8344C10.538 9.76533 10.8979 9.80078 11.225 9.93626C11.5521 10.0717 11.8316 10.3012 12.0283 10.5955C12.225 10.8899 12.33 11.236 12.33 11.59C12.33 12.0647 12.1414 12.52 11.8057 12.8557C11.47 13.1914 11.0147 13.38 10.54 13.38Z" fill="#111111"/><path d="M8 4.0025C7.88524 3.43736 7.57864 2.92927 7.13213 2.56432C6.68562 2.19936 6.12668 2 5.55 2C4.97332 2 4.41438 2.19936 3.96787 2.56432C3.52136 2.92927 3.21476 3.43736 3.1 4.0025H1V5.0025H3.05C3.13491 5.59843 3.43199 6.1437 3.88666 6.53818C4.34133 6.93265 4.92306 7.14984 5.525 7.14984C6.12694 7.14984 6.70867 6.93265 7.16334 6.53818C7.61801 6.1437 7.91509 5.59843 8 5.0025H15V4.0025H8ZM5.54 6.38C5.18597 6.38 4.83989 6.27502 4.54553 6.07833C4.25117 5.88165 4.02174 5.60209 3.88626 5.27501C3.75077 4.94793 3.71533 4.58802 3.78439 4.24079C3.85346 3.89357 4.02394 3.57462 4.27428 3.32428C4.52461 3.07395 4.84356 2.90347 5.19079 2.8344C5.53801 2.76533 5.89792 2.80078 6.225 2.93626C6.55208 3.07174 6.83164 3.30117 7.02833 3.59553C7.22502 3.8899 7.33 4.23598 7.33 4.59C7.33 5.06474 7.14141 5.52004 6.80572 5.85573C6.47003 6.19142 6.01474 6.38 5.54 6.38Z" fill="#111111"/></svg>

<svg viewBox="0 0 16 16" fill="none" xmlns="http://www.w3.org/2000/svg"><path d="M10.5 9.002a2.5 2.5 0 0 0-2.45 2H1v1h7.05a2.5 2.5 0 0 0 4.95 0h2v-1h-2a2.5 2.5 0 0 0-2.5-2Zm.04 4.378a1.79 1.79 0 1 1 0-3.58 1.79 1.79 0 0 1 0 3.58ZM8 4.002a2.5 2.5 0 0 0-4.9 0H1v1h2.05a2.5 2.5 0 0 0 4.95 0h7v-1H8ZM5.54 6.38a1.79 1.79 0 1 1 0-3.58 1.79 1.79 0 0 1 0 3.58Z" fill="#111111"/></svg>
